src/assets/logo.inline.svg

<?xml version="1.0" encoding="utf-8"?>
<svg version="1.1" id="Layer_1" xmlns="http://www.w3.org/2000/svg" xmlns:xlink="http://www.w3.org/1999/xlink" x="0px" y="0px"
	 viewBox="0 0 35 34" style="enable-background:new 0 0 35 34;" xml:space="preserve">
<path class="base" d="M26.6,30.3c0-0.2-0.2-0.3-0.5-0.3H16c-0.3,0-0.5,0.1-0.5,0.3l-1.3,3c-0.1,0.2,0,0.6,0.4,0.6
	c0.2,0.1,0.5,0,0.6-0.3l1.1-2.6h9.5l1.1,2.6c0.1,0.3,0.4,0.4,0.6,0.3c0.3-0.1,0.5-0.4,0.4-0.6L26.6,30.3z"/>
<path class="left" d="M16.9,9.2l0.6,1.4l3,7.4c0,0,0,0.1,0.1,0.2l1.9,4.6l0.1,0.4l0.1,0.2H9.3c-0.3,0-0.6,0.2-0.6,0.5
	c0,0.3,0.3,0.5,0.6,0.5h14.1c0.4,0,0.6-0.2,0.6-0.5c0-0.1,0-0.2-0.1-0.2l-0.1-0.5l-0.2-0.4l-0.1-0.4l0,0L18.1,9.2l-0.6-1.4l-3-7.4
	C14.4,0.1,14.2,0,13.9,0c-0.2,0-0.4,0.1-0.4,0.4L0.1,33.3c-0.2,0.2,0,0.6,0.2,0.6C0.4,34,0.5,34,0.5,34c0.2,0,0.4-0.1,0.5-0.4
	L14,1.9L16.9,9.2z"/>
<g>
	<path class="right" d="M35,33.3L21.6,0.4c-0.2-0.5-0.9-0.5-1,0l-2.7,6.4l0.6,1.4l2.6-6.3L34,33.6c0.1,0.3,0.4,0.4,0.7,0.3
		C35,33.8,35.1,33.5,35,33.3z"/>
	<path class="right" d="M12.6,22.7l4.5-11.1l-0.6-1.4l-5.1,12.5H12.6z"/>
	<path class="right" d="M10.5,25l-3.4,8.3c-0.1,0.2,0,0.6,0.3,0.6c0.3,0.1,0.6,0,0.7-0.3l3.5-8.6H10.5z"/>
</g>
</svg>

<svg xmlns="http://www.w3.org/2000/svg" viewBox="0 0 35 34" fill="none"><path d="M26.6 30.3C26.6 30.1 26.4 30 26.1 30H16C15.7 30 15.5 30.1 15.5 30.3L14.2 33.3C14.1 33.5 14.2 33.9 14.6 33.9 14.8 34 15.1 33.9 15.2 33.6L16.3 31H25.8L26.9 33.6C27 33.9 27.3 34 27.5 33.9 27.8 33.8 28 33.5 27.9 33.3L26.6 30.3Z"/><path d="M35 33.3L21.6 0.4C21.4-0.1 20.7-0.1 20.6 0.4L17.9 6.8 18.5 8.2 21.1 1.9 34 33.6C34.1 33.9 34.4 34 34.7 33.9 35 33.8 35.1 33.5 35 33.3Z" class="a"/><path d="M16.9 9.2L17.5 10.6 20.5 18C20.5 18 20.5 18.1 20.6 18.2L22.5 22.8 22.6 23.2 22.7 23.4H9.3C9 23.4 8.7 23.6 8.7 23.9 8.7 24.2 9 24.4 9.3 24.4H23.4C23.8 24.4 24 24.2 24 23.9 24 23.8 24 23.7 23.9 23.7L23.8 23.2 23.6 22.8 23.5 22.4H23.5L18.1 9.2 17.5 7.8 14.5 0.4C14.4 0.1 14.2 0 13.9 0 13.7 0 13.5 0.1 13.5 0.4L0.1 33.3C-0.1 33.5 0.1 33.9 0.3 33.9 0.4 34 0.5 34 0.5 34 0.7 34 0.9 33.9 1 33.6L14 1.9 16.9 9.2Z" class="a"/><path d="M12.6 22.7L17.1 11.6 16.5 10.2 11.4 22.7 12.6 22.7Z" class="a"/><path d="M10.5 25L7.1 33.3C7 33.5 7.1 33.9 7.4 33.9 7.7 34 8 33.9 8.1 33.6L11.6 25 10.5 25Z" class="a"/></svg>
